svg/fluentui-system-icons/ic_fluent_search_square_20_filled.svg

<svg width="20" height="20" viewBox="0 0 20 20" fill="none" xmlns="http://www.w3.org/2000/svg">
<path d="M9 11.5C10.3807 11.5 11.5 10.3807 11.5 9C11.5 7.61929 10.3807 6.5 9 6.5C7.61929 6.5 6.5 7.61929 6.5 9C6.5 10.3807 7.61929 11.5 9 11.5ZM3 6C3 4.34315 4.34315 3 6 3H14C15.6569 3 17 4.34315 17 6V14C17 15.6569 15.6569 17 14 17H6C4.34315 17 3 15.6569 3 14V6ZM9 12.5C9.7862 12.5 10.5119 12.2408 11.0962 11.8031L13.6464 14.3535C13.8417 14.5488 14.1583 14.5488 14.3535 14.3535C14.5488 14.1583 14.5488 13.8417 14.3536 13.6464L11.8032 11.096C12.2408 10.5117 12.5 9.78614 12.5 9C12.5 7.067 10.933 5.5 9 5.5C7.067 5.5 5.5 7.067 5.5 9C5.5 10.933 7.067 12.5 9 12.5Z" fill="#212121"/>
</svg>

<svg xmlns="http://www.w3.org/2000/svg" width="20" height="20"><path d="M9 11.5a2.5 2.5 0 1 0 0-5 2.5 2.5 0 0 0 0 5ZM3 6a3 3 0 0 1 3-3h8a3 3 0 0 1 3 3v8a3 3 0 0 1-3 3H6a3 3 0 0 1-3-3V6Zm6 6.5c.786 0 1.512-.26 2.096-.697l2.55 2.55a.5.5 0 1 0 .708-.707l-2.55-2.55A3.5 3.5 0 1 0 9 12.5Z"/></svg>
